app/public/dtpr-icons/voice.svg

<svg width="36" height="36" viewBox="0 0 36 36" fill="none" xmlns="http://www.w3.org/2000/svg">
<path d="M31.8564 8.8453L19 1.42265C18.3812 1.06538 17.6188 1.06538 17 1.42265L4.14359 8.8453C3.52479 9.20257 3.14359 9.86282 3.14359 10.5774V25.4226C3.14359 26.1372 3.52479 26.7974 4.14359 27.1547L17 34.5774C17.6188 34.9346 18.3812 34.9346 19 34.5774L31.8564 27.1547C32.4752 26.7974 32.8564 26.1372 32.8564 25.4226V10.5774C32.8564 9.86282 32.4752 9.20256 31.8564 8.8453Z" stroke="black" stroke-width="2"/>
<path fill-rule="evenodd" clip-rule="evenodd" d="M17 24.9291C13.6077 24.4439 11 21.5265 11 18C11 17.4477 11.4477 17 12 17C12.5523 17 13 17.4477 13 18C13 20.7614 15.2386 23 18 23C20.7614 23 23 20.7614 23 18C23 17.4477 23.4477 17 24 17C24.5523 17 25 17.4477 25 18C25 21.5265 22.3923 24.4439 19 24.9291V28H17V24.9291Z" fill="black"/>
<rect x="16" y="10" width="4" height="10" rx="2" stroke="black" stroke-width="2"/>
</svg>

<svg xmlns="http://www.w3.org/2000/svg" width="36" height="36" fill="none"><path stroke="#000" stroke-width="2" d="M31.856 8.845 19 1.423a2 2 0 0 0-2 0L4.144 8.845a2 2 0 0 0-1 1.732v14.846a2 2 0 0 0 1 1.732L17 34.577a2 2 0 0 0 2 0l12.856-7.422a2 2 0 0 0 1-1.732V10.577a2 2 0 0 0-1-1.732Z"/><path fill="#000" fill-rule="evenodd" d="M17 24.93A7 7 0 0 1 11 18a1 1 0 1 1 2 0 5 5 0 0 0 10 0 1 1 0 1 1 2 0 7 7 0 0 1-6 6.93V28h-2z" clip-rule="evenodd"/><rect width="4" height="10" x="16" y="10" stroke="#000" stroke-width="2" rx="2"/></svg>
